X:10
T:The Flowers of Edinburgh
S:Bacon (MDT)
A:Bampton
O:English
R:Reel
P:A(AB2)4
M:4/4
K:G
P:A
DEFD G2 A2 | B2 B2 BdcB | AGFG EFGA | B2 E2 E2 GE |
DEFD G2 A2 | B2 B2 Bgfe | dcBA GFGA | B2 G2 G4 |]
P:B
g6 (3gag | f6 (3faf | e2 e2 efge | B2 e2 e2 ge |
dBGB d2 d2 | e2 e2 efge | dcBA GFGA | B2 G2 G4 |]
